X:1
T:Title
%%score { ( 1 4 ) | ( 2 3 ) }
L:1/8
M:6/8
K:C
V:1 treble nm="Grand Piano"
V:4 treble 
V:2 bass 
V:3 bass 
V:1
 z3 z2[Q:1/4=90] [EG] | [Ec]2 [Ec] [Ec]B[FA] | [EG]E[_EA] [=EG]2 G | GD[G,B,E] [G,B,F]2 [G,B,F] | %4
[M:5/8][K:bass] [G,CE]2 [F,B,D] [E,C]2 |[M:1/8][K:treble] [CEG] |[M:3/4] [Ec]2 [Ec][Ec] B[FA] | %7
 [EG]E [_EA] [=EG]2 [EG] | ^FE Dc B[CDA] | [G,B,DG]2 [G,CEG] [G,DFG]3 |[M:1/8] [G,DF] | %11
[M:3/4] [G,CE]>[G,CE] [G,CE][G,CE] [CDF][CEG] | A6 | [C^FA]2 [A,CFA][A,FA] [Fd][Fc] | %14
[M:5/8] B-B- B3 |[M:1/8] [G,B,FG] |[M:3/4] [Ee][EG] [Ge] [B,Fd]3 | %17
 [B,Fd][B,DF] [B,Fd] [CEc]2 [CFA] | [CEG]>[Ec] [Ec][DB] [Ec][Fd] |[M:5/8] c-c- c3 |] %20
V:2
 z3 z2 [C,C] | [C,G,]2 [C,G,] G,[A,G][C,B,] | [C,C]2 [C,C] [C,C]2 [C,E,C] | .F,3 z3 | %4
[M:5/8] G,,2 G,, C,2 |[M:1/8] C, |[M:3/4] z2 z G, z2 | [C,C]2 [C,C] [C,C]2 [C,C] | z2 z A, z2 | %9
 G,,2 G,, G,,3 |[M:1/8] B,, |[M:3/4] C,>C, C,C, C,C, | z2 C C2 F, | D,2 D,D, [D,A,][D,D] | %14
[M:5/8][K:treble] [DG]2 D D2 |[M:1/8][K:bass] G,, |[M:3/4] [C,C][C,C] [C,C] G,,3 | %17
 G,,G,, G,, C,2 F, | G,>G, [G,,G,][G,,G,] [G,,G,][G,,G,] |[M:5/8] G,2 z z2 |] %20
V:3
 x6 | z3 .C,3 | x6 | [D,B,]-[D,G,B,]D, G,,2 G,, |[M:5/8] x5 |[M:1/8] x | %6
[M:3/4] [C,G,]2 [C,G,]C,- [C,A,G][C,B,] | x6 | [D,A,C]2 [D,A,C][D,D]- [D,G,D]D, | x6 |[M:1/8] x | %11
[M:3/4] x6 | F,6 | x6 |[M:5/8][K:treble] G,-G,- G,3 |[M:1/8][K:bass] x |[M:3/4] x6 | x6 | x6 | %19
[M:5/8] C,2- [C,-A,] [C,G,]2 |] %20
V:4
 x6 | x6 | x6 | x6 |[M:5/8][K:bass] x5 |[M:1/8][K:treble] x |[M:3/4] x6 | x6 | x6 | x6 |[M:1/8] x | %11
[M:3/4] x6 | [CF]2 F F2 [CFA] | x6 |[M:5/8] z2 G G2 |[M:1/8] x |[M:3/4] x6 | x6 | x6 | %19
[M:5/8] E2 F E2 |] %20

